projects/plugins/crm/.wordpress-org/icon.svg

<svg fill="none" height="128" viewBox="0 0 128 128" width="128" xmlns="http://www.w3.org/2000/svg" xmlns:xlink="http://www.w3.org/1999/xlink"><clipPath id="a"><path d="m0 0h128v128h-128z"/></clipPath><g clip-path="url(#a)"><rect fill="#2c3338" height="103.619" rx="12.1905" width="103.619" x="12.1904" y="12.1904"/><path clip-rule="evenodd" d="m76.9687 59.8954c2.9904 0 5.4146-2.4242 5.4146-5.4147 0-2.9904-2.4242-5.4146-5.4146-5.4146s-5.4146 2.4242-5.4146 5.4146c0 2.9905 2.4242 5.4147 5.4146 5.4147zm0 4.2113c5.3163 0 9.626-4.3097 9.626-9.626s-4.3097-9.626-9.626-9.626-9.626 4.3097-9.626 9.626 4.3097 9.626 9.626 9.626zm-9.4461 23.102v-7.7008c0-5.416-4.3905-9.8065-9.8064-9.8065h-15.4016c-5.416 0-9.8065 4.3905-9.8065 9.8065v7.7008h4.2113v-7.7008c0-3.0901 2.5051-5.5952 5.5952-5.5952h15.4016c3.0901 0 5.5951 2.5051 5.5951 5.5952v7.7008zm26.9537-7.7008v7.7008h-4.2114v-7.7008c0-3.0901-2.505-5.5952-5.5951-5.5952h-9.626v-4.2113h9.626c5.416 0 9.8065 4.3905 9.8065 9.8065zm-39.046-25.0272c0 2.9905-2.4242 5.4147-5.4146 5.4147-2.9905 0-5.4147-2.4242-5.4147-5.4147 0-2.9904 2.4242-5.4146 5.4147-5.4146 2.9904 0 5.4146 2.4242 5.4146 5.4146zm4.2114 0c0 5.3163-4.3097 9.626-9.626 9.626s-9.626-4.3097-9.626-9.626 4.3097-9.626 9.626-9.626 9.626 4.3097 9.626 9.626z" fill="#fff" fill-rule="evenodd"/><path d="m104.649 46.7302c12.904 0 23.365-10.4609 23.365-23.3651s-10.461-23.3651-23.365-23.3651c-12.9042 0-23.3651 10.4609-23.3651 23.3651s10.4609 23.3651 23.3651 23.3651z" fill="#069e08"/><g fill="#fff"><path d="m105.808 19.4412v22.6516l11.683-22.6516z"/><path d="m103.446 27.2443v-22.60709l-11.6384 22.60709z"/></g></g></svg>

<svg width="128" height="128" viewBox="0 0 128 128" fill="none" xmlns="http://www.w3.org/2000/svg">
<g clip-path="url(#clip0_2891_12257)">
<rect x="12.1904" y="12.1904" width="103.619" height="103.619" rx="12.1905" fill="#2C3338"/>
<path fill-rule="evenodd" clip-rule="evenodd" d="M76.9687 59.8954C79.9591 59.8954 82.3833 57.4712 82.3833 54.4807C82.3833 51.4903 79.9591 49.0661 76.9687 49.0661C73.9783 49.0661 71.5541 51.4903 71.5541 54.4807C71.5541 57.4712 73.9783 59.8954 76.9687 59.8954ZM76.9687 64.1067C82.285 64.1067 86.5947 59.797 86.5947 54.4807C86.5947 49.1644 82.285 44.8547 76.9687 44.8547C71.6524 44.8547 67.3427 49.1644 67.3427 54.4807C67.3427 59.797 71.6524 64.1067 76.9687 64.1067ZM67.5226 87.2087V79.5079C67.5226 74.0919 63.1321 69.7014 57.7162 69.7014H42.3146C36.8986 69.7014 32.5081 74.0919 32.5081 79.5079V87.2087H36.7194V79.5079C36.7194 76.4178 39.2245 73.9127 42.3146 73.9127H57.7162C60.8063 73.9127 63.3113 76.4178 63.3113 79.5079V87.2087H67.5226ZM94.4763 79.5079V87.2087H90.2649V79.5079C90.2649 76.4178 87.7599 73.9127 84.6698 73.9127H75.0438V69.7014H84.6698C90.0858 69.7014 94.4763 74.0919 94.4763 79.5079ZM55.4303 54.4807C55.4303 57.4712 53.0061 59.8954 50.0157 59.8954C47.0252 59.8954 44.601 57.4712 44.601 54.4807C44.601 51.4903 47.0252 49.0661 50.0157 49.0661C53.0061 49.0661 55.4303 51.4903 55.4303 54.4807ZM59.6417 54.4807C59.6417 59.797 55.332 64.1067 50.0157 64.1067C44.6994 64.1067 40.3897 59.797 40.3897 54.4807C40.3897 49.1644 44.6994 44.8547 50.0157 44.8547C55.332 44.8547 59.6417 49.1644 59.6417 54.4807Z" fill="white"/>
<path d="M104.649 46.7302C117.553 46.7302 128.014 36.2693 128.014 23.3651C128.014 10.4609 117.553 0 104.649 0C91.7448 0 81.2839 10.4609 81.2839 23.3651C81.2839 36.2693 91.7448 46.7302 104.649 46.7302Z" fill="#069E08"/>
<path d="M105.808 19.4412V42.0928L117.491 19.4412H105.808Z" fill="white"/>
<path d="M103.446 27.2443V4.63721L91.8076 27.2443H103.446Z" fill="white"/>
</g>
<defs>
<clipPath id="clip0_2891_12257">
<rect width="128" height="128" fill="white"/>
</clipPath>
</defs>
</svg>
